X: 13674
T: Fómhar Na nGéanna
R: reel
M: 4/4
K: Gmajor
B2 GB FGEd|c2 Bc ABFe|dBgB FBdB|ecAG [1 FAed:|2 FAED||
CEGc BdAB|G2dB F2dB|CEGc BABd|f2dB e2cA|
C2 EG BdAB|G2 dB F2 dB|C2 Ec BABd|fdBe cAdB|G4 cAed||

